xiaomi.svg

<svg viewBox="0 0 24 24" xmlns="http://www.w3.org/2000/svg"><path d="M23.7417 4.34015C23.8708 4.34015 24 4.44349 24 4.59849L24 19.4273C24 19.5565 23.8967 19.6857 23.7417 19.6857L20.4865 19.6857C20.3574 19.6857 20.2282 19.5823 20.2282 19.4273L20.2282 4.57266C20.2282 4.44349 20.3315 4.31432 20.4865 4.31432L23.7417 4.31432L23.7417 4.34015ZM9.63617 4.34015C12.0904 4.34015 14.648 4.44349 15.9139 5.70936C17.1539 6.94941 17.2831 9.42949 17.3089 11.8321L17.3089 19.4015C17.3089 19.5307 17.2056 19.6598 17.0506 19.6598L13.7955 19.6598C13.6663 19.6598 13.5371 19.5565 13.5371 19.4015L13.5371 11.7029C13.5371 10.3595 13.4596 8.96448 12.7621 8.29279C12.1679 7.6986 11.0571 7.56943 9.89451 7.51776L4.03014 7.51776C3.90097 7.51776 3.7718 7.6211 3.7718 7.7761L3.7718 19.4273C3.7718 19.5565 3.66846 19.6857 3.51346 19.6857L0.258342 19.6857C0.129171 19.6857 0 19.5823 0 19.4273L0 4.57266C0 4.44349 0.103337 4.31432 0.258342 4.31432L9.63617 4.31432L9.63617 4.34015ZM10.3595 10.2304C10.4887 10.2304 10.6179 10.3337 10.6179 10.4887L10.6179 19.4015C10.6179 19.5307 10.5145 19.6599 10.3595 19.6599L6.94941 19.6599C6.82024 19.6599 6.69107 19.5565 6.69107 19.4015L6.69107 10.4887C6.69107 10.3595 6.7944 10.2304 6.94941 10.2304L10.3595 10.2304Z" fill="#ff6900"/></svg>

<svg viewBox="0 0 24 24" xmlns="http://www.w3.org/2000/svg"><path d="M23.742 4.34c.129 0 .258.103.258.258v14.83c0 .128-.103.258-.258.258h-3.256a.259.259 0 0 1-.258-.259V4.573c0-.13.103-.259.258-.259h3.256v.026Zm-14.106 0c2.454 0 5.012.103 6.278 1.37 1.24 1.24 1.37 3.72 1.395 6.122v7.57c0 .129-.103.258-.258.258h-3.255a.259.259 0 0 1-.259-.259v-7.698c0-1.343-.077-2.739-.775-3.41-.594-.594-1.705-.724-2.867-.775H4.03a.259.259 0 0 0-.258.258v11.651c0 .13-.104.259-.259.259H.258A.259.259 0 0 1 0 19.427V4.573c0-.13.103-.259.258-.259h9.378v.026Zm.724 5.89c.129 0 .258.104.258.259V19.4c0 .13-.104.259-.258.259H6.95a.259.259 0 0 1-.259-.259V10.49c0-.13.103-.259.258-.259h3.41Z" fill="#ff6900"/></svg>
